build/images/content/icons/icon-11.svg

<svg width="100" height="100" viewBox="0 0 100 100" fill="none" xmlns="http://www.w3.org/2000/svg">
<path d="M65.7578 59.5008C63.518 59.4905 61.3636 60.3594 59.7578 61.9208V74.2008C60.7627 75.177 61.9918 75.8915 63.3373 76.2818C64.6827 76.6721 66.1034 76.7262 67.4747 76.4394C68.846 76.1526 70.1259 75.5336 71.2021 74.6367C72.2783 73.7399 73.118 72.5926 73.6474 71.2956C74.1768 69.9985 74.3798 68.5913 74.2385 67.1975C74.0972 65.8037 73.616 64.466 72.8371 63.3015C72.0582 62.1371 71.0054 61.1816 69.7711 60.5189C68.5368 59.8563 67.1587 59.5067 65.7578 59.5008Z" fill="#F91A2B"/>
<path d="M51.7305 40.741H79.7805" stroke="#393C4C" stroke-width="2" stroke-linecap="round" stroke-linejoin="round"/>
<path d="M51.2695 48.441V32.991H80.1595V89.371H59.7995" stroke="#393C4C" stroke-width="2" stroke-linecap="round" stroke-linejoin="round"/>
<path d="M47.5898 50.7711L51.0998 48.4412H56.2898L59.7998 50.7711V89.3712H47.5898V50.7711Z" stroke="#393C4C" stroke-width="2" stroke-linecap="round" stroke-linejoin="round"/>
<path d="M54.5508 51.8112V48.4412H52.8508V51.8112H54.5508Z" fill="#393C4C"/>
<path d="M53.6977 54.1409C53.8508 54.1293 53.9972 54.0732 54.119 53.9796C54.2408 53.886 54.3327 53.759 54.3834 53.614C54.4341 53.469 54.4414 53.3124 54.4045 53.1633C54.3676 53.0142 54.288 52.8791 54.1755 52.7746C54.063 52.67 53.9224 52.6005 53.771 52.5746C53.6196 52.5486 53.464 52.5674 53.3231 52.6286C53.1822 52.6897 53.0622 52.7906 52.9778 52.9189C52.8933 53.0472 52.8481 53.1973 52.8477 53.3509C52.8515 53.4586 52.8766 53.5645 52.9214 53.6626C52.9662 53.7606 53.0299 53.8488 53.1089 53.9222C53.1878 53.9955 53.2805 54.0526 53.3815 54.0902C53.4825 54.1277 53.59 54.145 53.6977 54.1409Z" fill="#393C4C"/>
<path d="M47.5898 57.6404H59.7998" stroke="#393C4C" stroke-width="2" stroke-linecap="round" stroke-linejoin="round"/>
<path d="M47.5898 81.8406H59.7998" stroke="#393C4C" stroke-width="2" stroke-linecap="round" stroke-linejoin="round"/>
<path d="M50.4688 81.6208V85.3909L51.3488 86.2108V89.3509" stroke="#393C4C" stroke-width="1.5" stroke-linejoin="round"/>
<path d="M56.9191 81.6208V85.3909L56.0391 86.2108V89.3509" stroke="#393C4C" stroke-width="1.5" stroke-linejoin="round"/>
<path d="M37.29 16.7908C36.46 15.9908 35.29 14.4608 35.29 13.4408V11.1208H22.95V13.4408C22.95 14.4408 21.81 15.9908 20.95 16.7908C20.09 17.5908 19 18.4108 19 21.3708V83.2308C19 84.8593 19.6469 86.421 20.7984 87.5725C21.9498 88.724 23.5116 89.3708 25.14 89.3708H33.09C33.8958 89.3709 34.6938 89.2119 35.4382 88.9033C36.1825 88.5946 36.8587 88.1422 37.4281 87.5719C37.9974 87.0016 38.4488 86.3247 38.7562 85.5798C39.0637 84.8349 39.2213 84.0367 39.22 83.2308V21.3708C39.29 18.4108 38.14 17.5808 37.29 16.7908Z" stroke="#393C4C" stroke-width="2" stroke-linecap="round" stroke-linejoin="round"/>
<path d="M29.1406 67.0108C27.5493 67.0108 26.0232 66.3787 24.898 65.2535C23.7728 64.1283 23.1406 62.6021 23.1406 61.0108V35.6208C23.1406 34.0296 23.7728 32.5034 24.898 31.3782C26.0232 30.253 27.5493 29.6208 29.1406 29.6208C30.7319 29.6208 32.2581 30.253 33.3833 31.3782C34.5085 32.5034 35.1406 34.0296 35.1406 35.6208V61.0208C35.138 62.6104 34.5047 64.134 33.3797 65.257C32.2548 66.3801 30.7302 67.0108 29.1406 67.0108V67.0108Z" stroke="#393C4C" stroke-width="2" stroke-linecap="round" stroke-linejoin="round"/>
<path d="M39.2513 74.4207H19.0312V81.8106H39.2513V74.4207Z" stroke="#393C4C" stroke-width="2" stroke-linecap="round" stroke-linejoin="round"/>
<path d="M29.1413 79.7305C28.8228 79.7305 28.5116 79.6361 28.2468 79.4592C27.982 79.2823 27.7757 79.0308 27.6538 78.7366C27.5319 78.4424 27.5001 78.1187 27.5622 77.8064C27.6243 77.4941 27.7776 77.2072 28.0028 76.982C28.228 76.7569 28.5149 76.6036 28.8272 76.5414C29.1395 76.4793 29.4632 76.5112 29.7574 76.633C30.0516 76.7549 30.303 76.9613 30.4799 77.226C30.6568 77.4908 30.7512 77.8021 30.7512 78.1205C30.7512 78.5475 30.5816 78.957 30.2797 79.2589C29.9778 79.5609 29.5683 79.7305 29.1413 79.7305Z" stroke="#393C4C" stroke-linejoin="round"/>
<path d="M32.5311 43.8408V47.2008L31.5311 46.2608V44.6308L32.5311 43.8408ZM28.6411 47.0708L26.0711 46.8808L27.0711 46.0908L28.4011 46.1908L29.0311 46.7808L28.6411 47.0708ZM25.8711 43.3308L26.8711 44.2708V45.9208L25.8711 46.7108V43.3308ZM28.7111 44.3308L29.2011 43.9308L29.7011 44.4008V46.2508L29.2011 46.6408L28.7111 46.1708V44.3308ZM29.7611 43.4908L32.3411 43.6808L31.3411 44.4708L30.0011 44.3708L29.3811 43.7808L29.7611 43.4908Z" fill="#393C4C"/>
<path d="M32.5312 42.8011L31.5312 42.7311V41.8611L32.5312 41.9311V42.8011Z" fill="#393C4C"/>
<path d="M30.0111 40.0111L31.3511 40.1111L32.3511 41.0411L29.7711 40.8611L29.4011 40.5011L30.0111 40.0111ZM32.5311 37.5311V40.9211L31.5311 39.9811V38.3211L32.5311 37.5311ZM28.6411 40.7711L26.0711 40.5711L27.0711 39.7811L28.4011 39.8811L29.0311 40.4711L28.6411 40.7711ZM25.8711 37.0311L26.8711 37.9711V39.6011L25.8711 40.3911V37.0311ZM28.7111 38.0311L29.2011 37.6311L29.7011 38.1011V39.9211L29.2011 40.3111L28.7111 39.8511V38.0311ZM29.7611 37.2011L32.3411 37.3911L31.3411 38.1811L30.0011 38.0811L29.3811 37.4911L29.7611 37.2011ZM28.3911 37.9611L27.0311 37.8611L26.0311 36.8611L28.6111 37.0611L28.9911 37.4211L28.3911 37.9611Z" fill="#393C4C"/>
</svg>

<svg width="100" height="100" fill="none" xmlns="http://www.w3.org/2000/svg"><path d="M65.758 59.5a8.55 8.55 0 00-6 2.42V74.2a8.56 8.56 0 106-14.7z" fill="#F91A2B"/><path d="M51.73 40.741h28.05m-28.51 7.7v-15.45h28.89v56.38H59.8" stroke="#393C4C" stroke-width="2" stroke-linecap="round" stroke-linejoin="round"/><path d="M47.59 50.771l3.51-2.33h5.19l3.51 2.33v38.6H47.59v-38.6z" stroke="#393C4C" stroke-width="2" stroke-linecap="round" stroke-linejoin="round"/><path d="M54.55 51.811v-3.37h-1.7v3.37h1.7zm-.852 2.329a.79.79 0 10-.85-.79.82.82 0 00.85.79z" fill="#393C4C"/><path d="M47.59 57.64H59.8m-12.21 24.2H59.8" stroke="#393C4C" stroke-width="2" stroke-linecap="round" stroke-linejoin="round"/><path d="M50.469 81.62v3.77l.88.82v3.14m5.571-7.73v3.77l-.88.82v3.14" stroke="#393C4C" stroke-width="1.5" stroke-linejoin="round"/><path d="M37.29 16.79c-.83-.8-2-2.33-2-3.35v-2.32H22.95v2.32c0 1-1.14 2.55-2 3.35-.86.8-1.95 1.62-1.95 4.58v61.86a6.14 6.14 0 006.14 6.14h7.95a6.13 6.13 0 006.13-6.14V21.37c.07-2.96-1.08-3.79-1.93-4.58z" stroke="#393C4C" stroke-width="2" stroke-linecap="round" stroke-linejoin="round"/><path d="M29.14 67.01a6 6 0 01-6-6V35.62a6 6 0 0112 0v25.4a6 6 0 01-6 5.99v0zm10.111 7.41h-20.22v7.39h20.22v-7.39z" stroke="#393C4C" stroke-width="2" stroke-linecap="round" stroke-linejoin="round"/><path d="M29.141 79.73a1.61 1.61 0 110-3.22 1.61 1.61 0 010 3.22z" stroke="#393C4C" stroke-linejoin="round"/><path d="M32.531 43.84v3.36l-1-.94v-1.63l1-.79zm-3.89 3.23l-2.57-.19 1-.79 1.33.1.63.59-.39.29zm-2.77-3.74l1 .94v1.65l-1 .79v-3.38zm2.84 1l.49-.4.5.47v1.85l-.5.39-.49-.47v-1.84zm1.05-.84l2.58.19-1 .79-1.34-.1-.62-.59.38-.29zm2.77-.689l-1-.07v-.87l1 .07v.87zm-2.52-2.79l1.34.1 1 .93-2.58-.18-.37-.36.61-.49zm2.52-2.48v3.39l-1-.94v-1.66l1-.79zm-3.89 3.24l-2.57-.2 1-.79 1.33.1.63.59-.39.3zm-2.77-3.74l1 .94v1.63l-1 .79v-3.36zm2.84 1l.49-.4.5.47v1.82l-.5.39-.49-.46v-1.82zm1.05-.83l2.58.19-1 .79-1.34-.1-.62-.59.38-.29zm-1.37.76l-1.36-.1-1-1 2.58.2.38.36-.6.54z" fill="#393C4C"/></svg>
